X: 18
T:Big John McNeil
R:reel
C:Trad
M:2/4
L:1/16
Q:1/4=200
K:A
A2|:A,2CE FECE|AECE FECE|A,2CE FECE|
FAGF EDCB,|A,2CE FECE|AECE FECE|A,CB,D CEDF|
EGBd cA:|
:cd|eAfA eAcd|eAfA e2 (3agf|eAfA eAce|
daca B2cd|eAfA eAcd|eAfA e2fg|agfe fece|
defg a2:|
|:A2|A,2A,2 C2A,2|C2A,2 C2A,2|A,2A,2 C2A,2|
DFED CB,A,G,|A,2A,2 C2A,2|C2A,2 C2A,2|A,2G,B, A,CB,D|
E2G2 A2::AB|c2d2 c2AB|c2d2 c2e2|c2d2 c2A2|
B2A2 G2AB|c2d2 c2AB|c2d2 c2de|fedc dcAc|
Bcdd c2:|
